src/assets/images/icons/spam-3-line.svg

<svg xmlns="http://www.w3.org/2000/svg" width="24" height="24" fill="none" viewBox="0 0 24 24"><g clip-path="url(#a)"><path fill="#181d27" d="M15.936 2.5 21.5 8.067v7.87L15.936 21.5h-7.87L2.5 15.936v-7.87L8.066 2.5zm-.829 2H8.894L4.501 8.895v6.213l4.393 4.394h6.213l4.394-4.394V8.894l-4.394-4.393zM8 11h8v2H8z"/></g><defs><clipPath id="a"><path fill="#fff" d="M0 0h24v24H0z"/></clipPath></defs></svg>

<svg width="24" height="24" viewBox="0 0 24 24" fill="none" xmlns="http://www.w3.org/2000/svg">
<g clip-path="url(#clip0_58_16548)">
<path d="M15.936 2.5L21.5 8.067V15.937L15.936 21.5H8.066L2.5 15.936V8.066L8.066 2.5H15.936ZM15.107 4.5H8.894L4.501 8.895V15.108L8.894 19.502H15.107L19.501 15.108V8.894L15.107 4.501V4.5ZM8 11H16V13H8V11Z" fill="#181D27"/>
</g>
<defs>
<clipPath id="clip0_58_16548">
<rect width="24" height="24" fill="white"/>
</clipPath>
</defs>
</svg>
